X:378
T:I Have a Bonnet Trimmed With Blue
B:Irish Tunebook, John Loesberg
Z:Nigel Gatherer
L:1/8
M:2/4
K:G
GA/B/ ce | dG    B2 | de/d/ cA | GB B2  |
GA/B/ ce | dG    B2 | de/d/ cA | AG G2 :|
de/d/ Bd | gB    d2 | de/d/ cA | ed d2  |
de/d/ Bd | gB    d2 | de/d/ cA | AG G2 ||
GB    GB | de/d/ B2 | de/d/ cA | GB B2  |
GB    GB | de/d/ B2 | de/d/ cA | AG G2 ||
ge    eg | de/d/ B2 | de/d/ cA | ed d2  |
ge    eg | de/d/ B2 | de/d/ cA | AG G2 ||
<end>
<start>
